!! 00000] TT[WS
!!!OTL: Qiyue li huilai kanyikan wo
!!!ARE: Asia, China,ÿShanxi Hequ
!! Ethnic Group: Han
!! WI, 18
!!!SCT: J0020
!!!YEM: Copyright 1995, estate of Helmut Schaffrath.
**kern
*ICvox
*Ivox
*M2/4
*k[f#c#g#]
*A:
{8b
16b
16ee
8e
16d
16e
=1
8f#
8ee
8ff#
16ee
16cc#
=2
8.b
16f#
8e
16e
16cc#
=3
2b}
=4
{8b
16b
16ee
8e
16d
16e
=5
8f#
8ee
8ff#
16ee
16cc#
=6
8.b
16f#
8e
16d
16f#
=7
2e}
==
!!!AGN: Shange, Shanqu. Qingge
!!!ONB: ESAC (Essen Associative Code) Database: CHINA
!!!AMT: simple duple
!!!AIN: vox
!!!EED: Helmut Schaffrath
!!!EEV: 1.0
*-
